/* XPM */
static const char * app_icon_xpm[] = {
"32 32 6 1",
"  c None",
". c #0E3A66",
"+ c #1F6FB2",
"@ c #FFFFFF",
"# c #2ECC71",
"$ c #1E1E1E",
"                                ",
"            ........            ",
"         ...++++++++...         ",
"       ..++++++++++++++..       ",
"      .++++++++++++++++++.      ",
"     .++++++++++++++++++++.     ",
"    .++++++++++++++++++++++.    ",
"   .++++++++++++++++++++++++.   ",
"   .+++++++++@@@@@@+++++++++.   ",
"  .++++++++++@@@@@@++++++++++.  ",
"  .++++++++++@@$$@@++++++++++.  ",
"  .+++++++###@@$$@@###+++++++.  ",
"  .+++++++###@@@@@@###+++++++.  ",
"  .+++++++############+++++++.  ",
"  .+++++++###++++++###+++++++.  ",
"  .+++++++###++++++###+++++++.  ",
"  .++++++++++++++++++++++++++.  ",
"   .++++++++++####++++++++++.   ",
"   .++++++++++####++++++++++.   ",
"    .++++++++++++++++++++++.    ",
"     .++++++++++++++++++++.     ",
"      .++++++++++++++++++.      ",
"       ..++++++++++++++..       ",
"         ...++++++++...         ",
"            ........            ",
"                                ",
"                                ",
"                                ",
"                                "
};
